Adwaita++-Light/panel/16/si-syncthing-11.svg

<svg height="16" width="16" xmlns="http://www.w3.org/2000/svg">
  <path d="m1.9378223 4.5a7 7 0 0 0 2.5621777 9.562178 7 7 0 0 0 9.562178-2.562178 7 7 0 0 0 -2.562178-9.5621777 7 7 0 0 0 -9.5621777 2.5621777zm1.7320508 1.0000002a5 5 0 0 1 5.967255-2.2223083 1.5 1.5 0 0 1 1.7958839-.2238436 1.5 1.5 0 0 1 .584718 1.9794259 5 5 0 0 1 .948471 3.5290731 1.5 1.5 0 0 1 .479951 2.0046407 1.5 1.5 0 0 1 -1.668895.70311 5 5 0 0 1 -6.2772569 1.060029 5 5 0 0 1 -.073428-.0447 1.5 1.5 0 0 1 -1.7255896.160685 1.5 1.5 0 0 1 -.5490383-2.049038 1.5 1.5 0 0 1 .2901263-.357976 5 5 0 0 1 .227799-4.5390931zm.8660253.4999996a4 4 0 0 0 -.1744474 3.6498057 1.5 1.5 0 0 1 .8395113.1982709 1.5 1.5 0 0 1 .05048.033648l2.0122172-1.5829075a1.5 1.5 0 0 1 .1203151-1.2318294 1.5 1.5 0 0 1 1.5720801-.7229226l.5878909-1.0182566a1.5 1.5 0 0 1 -.3491165-1.1375005 4 4 0 0 0 -4.6589307 1.811692zm1.3334397 4.6669772a1.5 1.5 0 0 1 .05481.74882 4 4 0 0 0 .075852.04831 4 4 0 0 0 4.9413141-.757826 1.5 1.5 0 0 1 -.267122-1.1623305l-1.0182569-.5878955a1.5 1.5 0 0 1 -1.7229226.1599706 1.5 1.5 0 0 1 -.0504812-.03366zm3.9527419-3.8229119a1.5 1.5 0 0 1 .333855 1.2459643l1.018257.5878906a1.5 1.5 0 0 1 .80754-.34792 4 4 0 0 0 -.697736-2.6039858 1.5 1.5 0 0 1 -.874025.09979l-.5878911 1.0182608z" fill="#444"/>
</svg>

<svg xmlns="http://www.w3.org/2000/svg" width="16" height="16" version="1.1">
 <defs>
  <style id="current-color-scheme" type="text/css">
   .ColorScheme-Text { color:#444444; } .ColorScheme-Highlight { color:#4285f4; }
  </style>
 </defs>
 <path style="fill:currentColor" class="ColorScheme-Text" d="M 1.9378223,4.5 A 7,7 0 0 0 4.5,14.062178 7,7 0 0 0 14.062178,11.5 7,7 0 0 0 11.5,1.9378223 7,7 0 0 0 1.9378223,4.5 Z m 1.7320508,1.0000002 a 5,5 0 0 1 5.967255,-2.2223083 1.5,1.5 0 0 1 1.7958839,-0.2238436 1.5,1.5 0 0 1 0.584718,1.9794259 5,5 0 0 1 0.948471,3.5290731 1.5,1.5 0 0 1 0.479951,2.0046407 1.5,1.5 0 0 1 -1.668895,0.70311 5,5 0 0 1 -6.2772569,1.060029 5,5 0 0 1 -0.073428,-0.0447 1.5,1.5 0 0 1 -1.7255896,0.160685 1.5,1.5 0 0 1 -0.5490383,-2.049038 1.5,1.5 0 0 1 0.2901263,-0.357976 5,5 0 0 1 0.227799,-4.5390931 z m 0.8660253,0.4999996 a 4,4 0 0 0 -0.1744474,3.6498057 1.5,1.5 0 0 1 0.8395113,0.1982709 1.5,1.5 0 0 1 0.05048,0.033648 L 7.2636595,8.2988169 A 1.5,1.5 0 0 1 7.3839746,7.0669875 1.5,1.5 0 0 1 8.9560547,6.3440649 L 9.5439456,5.3258083 A 1.5,1.5 0 0 1 9.1948291,4.1883078 4,4 0 0 0 4.5358984,5.9999998 Z m 1.3334397,4.6669772 a 1.5,1.5 0 0 1 0.05481,0.74882 4,4 0 0 0 0.075852,0.04831 4,4 0 0 0 4.9413141,-0.757826 1.5,1.5 0 0 1 -0.267122,-1.1623305 L 9.6559353,8.956055 A 1.5,1.5 0 0 1 7.9330127,9.1160256 1.5,1.5 0 0 1 7.8825315,9.0823656 L 5.8693381,10.666977 Z M 9.82208,6.8440651 a 1.5,1.5 0 0 1 0.333855,1.2459643 L 11.174192,8.67792 A 1.5,1.5 0 0 1 11.981732,8.33 4,4 0 0 0 11.283996,5.7260142 1.5,1.5 0 0 1 10.409971,5.8258042 L 9.8220799,6.844065 Z"/>
</svg>
